src/images/Icons/White/Arrow.svg

<svg fill="none" height="32" viewBox="0 0 32 32" width="32" xmlns="http://www.w3.org/2000/svg"><g fill="#fff"><path d="m21.0634 14.413 4.9323-.4362c1.1069 0 2.0043.9062 2.0043 2.0239s-.8974 2.0238-2.0043 2.0238l-4.9323-.4362c-.8684 0-1.5724-.7108-1.5724-1.5876 0-.8783.704-1.5877 1.5724-1.5877z" opacity=".4"/><path d="m4.50029 14.4931c.07709-.0778.36509-.4068.63563-.68 1.57816-1.711 5.69888-4.5089 7.85448-5.36515.3272-.13659 1.1549-.42739 1.5985-.44795.4233 0 .8276.0984 1.2131.29227.4814.27171.8654.70057 1.0778 1.2058.1352.34955.3476 1.39963.3476 1.41873.2109 1.1471.3258 3.0123.3258 5.0744 0 1.9622-.1149 3.751-.288 4.9172-.0189.0206-.2312 1.3233-.4625 1.7698-.4233.8166-1.2509 1.3218-2.1367 1.3218h-.0771c-.5775-.0191-1.7905-.5258-1.7905-.5434-2.0407-.8563-6.06395-3.519-7.68139-5.2888 0 0-.45672-.4553-.65454-.7388-.30836-.4083-.46254-.9135-.46254-1.4187 0-.564.17309-1.0883.50036-1.5172z"/></g></svg>

<svg width="32" height="32" viewBox="0 0 32 32" fill="none" xmlns="http://www.w3.org/2000/svg">
<path opacity="0.4" d="M21.0634 14.413L25.9957 13.9768C27.1026 13.9768 28 14.883 28 16.0007C28 17.1184 27.1026 18.0245 25.9957 18.0245L21.0634 17.5883C20.195 17.5883 19.491 16.8775 19.491 16.0007C19.491 15.1224 20.195 14.413 21.0634 14.413Z" fill="white"/>
<path d="M4.50029 14.4931C4.57738 14.4153 4.86538 14.0863 5.13592 13.8131C6.71408 12.1021 10.8348 9.3042 12.9904 8.44795C13.3176 8.31136 14.1453 8.02056 14.5889 8C15.0122 8 15.4165 8.0984 15.802 8.29227C16.2834 8.56398 16.6674 8.99284 16.8798 9.49807C17.015 9.84762 17.2274 10.8977 17.2274 10.9168C17.4383 12.0639 17.5532 13.9291 17.5532 15.9912C17.5532 17.9534 17.4383 19.7422 17.2652 20.9084C17.2463 20.929 17.034 22.2317 16.8027 22.6782C16.3794 23.4948 15.5518 24 14.666 24H14.5889C14.0114 23.9809 12.7984 23.4742 12.7984 23.4566C10.7577 22.6003 6.73445 19.9376 5.11701 18.1678C5.11701 18.1678 4.66029 17.7125 4.46247 17.429C4.15411 17.0207 3.99993 16.5155 3.99993 16.0103C3.99993 15.4463 4.17302 14.922 4.50029 14.4931Z" fill="white"/>
</svg>
